X: 13011
T: Up and ware them a Willie
%R: reel
B: James Oswald "The Caledonian Pocket Companion" v.1 b.3 p.1
S: https://ia800501.us.archive.org/18/items/caledonianpocket01rugg/caledonianpocket01rugg_bw.pdf
Z: 2020 John Chambers <jc:trillian.mit.edu>
M: C
L: 1/8
K: A
"_Brisk"e |\
A/A/A cA d2-df | A/A/A cA B2-Be | A/A/A cA d>efd | edcB A2A :: (f/g/) | aecA d2-d(f/g/) |
aecA B2-B(f/g/) | (a/g/f/e/) (d/c/B/A/) d>efd | edcB A2A :: "_Variation"e | A/A/A (c>e) A/A/A d>f | A/A/A cA B2-Be |
A/A/A c>e A/A/A d>f | e>cac A2A :: (f/g/) | (.a/.g/.f/.e/) c>e (a/g/f/e/) d>f | (a/g/f/e/) ac B2-B(f/g/) | afge fdaf |
e>dc>B A2A :: e | cA (c/d/e) fddf | ecac =gBBe | cA (c/d/e) fddf | ea (B/c/d/B/) cAA :|
|: (f/g/) |\
ae (c/d/e/)c/ af (d/e/f/)d/ | ae (c/d/e/)c/ =gB B(f/^g/) | ae (c/d/e/)c/ af (d/e/f/)d/ | (c/d/e/)c/ (B/c/d/)B/ cAA :|
|: e | (A/c/e) (A/d/f) (A/c/e) (A/d/f) |\
ecac B2-Be | (A/c/e) (A/d/f) (A/c/e) (c/e/a) | edcB A2A :: (f/g/) | (a/g/f/e/) ac (a/g/f/e/) ad |
(a/g/f/e/) ac B2-B(f/g/) | aefc dBbg | afec A2A :: e | Aece Afdf | Aeca B2-Be | Aece Afdf |
edcB A2A :: (f/g/) | aeac aead | aeac B2-Bf/g/ | a/g/f/e/ d/c/B/A/ d>efd | e>dcB A2A :|

% This file should be deleted when the book is done.
%%newpage
%%vskip 3cm


